science/modern/Prism-rainbow.svg

<svg xmlns="http://www.w3.org/2000/svg" xmlns:cc="http://web.resource.org/cc/" xmlns:svg="http://www.w3.org/2000/svg" xmlns:xlink="http://www.w3.org/1999/xlink" id="svg2" width="400" height="300" version="1.0"><defs id="defs4"><linearGradient id="linearGradient28439"><stop id="stop28441" offset="0" style="stop-color:#fff;stop-opacity:1"/><stop id="stop28443" offset="1" style="stop-color:#fff;stop-opacity:1"/></linearGradient><linearGradient id="linearGradient26491"><stop id="stop26493" offset="0" style="stop-color:#efefef;stop-opacity:1"/><stop id="stop26495" offset="1" style="stop-color:#efefef;stop-opacity:0"/></linearGradient><linearGradient id="linearGradient25510"><stop style="stop-color:#efefef;stop-opacity:0" id="stop25512" offset="0"/><stop style="stop-color:#efefef;stop-opacity:1" id="stop25514" offset="1"/></linearGradient><linearGradient id="linearGradient12266"><stop style="stop-color:red;stop-opacity:1" id="stop12268" offset="0"/><stop id="stop12274" offset=".135" style="stop-color:#f87f00;stop-opacity:1"/><stop style="stop-color:#ff0;stop-opacity:1" id="stop12276" offset=".397"/><stop id="stop12278" offset=".521" style="stop-color:#3aff0d;stop-opacity:1"/><stop style="stop-color:#00a225;stop-opacity:1" id="stop12280" offset=".63"/><stop id="stop12282" offset=".862" style="stop-color:#02d0ff;stop-opacity:1"/><stop style="stop-color:#6d22ff;stop-opacity:1" id="stop12284" offset="1"/></linearGradient><linearGradient id="linearGradient9304"><stop style="stop-color:#fdffff;stop-opacity:1" id="stop9306" offset="0"/><stop style="stop-color:#f2f2f2;stop-opacity:1" id="stop9308" offset="1"/></linearGradient><linearGradient id="linearGradient3136"><stop style="stop-color:#000;stop-opacity:.35416666" id="stop3138" offset="0"/><stop style="stop-color:#000;stop-opacity:0" id="stop3140" offset="1"/></linearGradient><filter id="filter7354"><feGaussianBlur id="feGaussianBlur7356" stdDeviation="1.224"/></filter><linearGradient id="linearGradient9310" x1="-14.525" x2="191.668" y1="61.097" y2="61.097" gradientUnits="userSpaceOnUse" spreadMethod="pad" xlink:href="#linearGradient9304"/><filter id="filter10313"><feGaussianBlur id="feGaussianBlur10315" stdDeviation="2.554"/></filter><filter id="filter18571" width="1.059" height="1.246" x="-.03" y="-.123"><feGaussianBlur id="feGaussianBlur18573" stdDeviation="1.028"/></filter><filter id="filter24498"><feGaussianBlur id="feGaussianBlur24500" stdDeviation="1.924"/></filter><filter id="filter24502"><feGaussianBlur id="feGaussianBlur24504" stdDeviation="2.047"/></filter><filter id="filter24506"><feGaussianBlur id="feGaussianBlur24508" stdDeviation="2.01"/></filter><filter id="filter24510"><feGaussianBlur id="feGaussianBlur24512" stdDeviation="2.104"/></filter><filter id="filter24518"><feGaussianBlur id="feGaussianBlur24520" stdDeviation=".692"/></filter><filter id="filter24522"><feGaussianBlur id="feGaussianBlur24524" stdDeviation="2.324"/></filter><filter id="filter24526"><feGaussianBlur id="feGaussianBlur24528" stdDeviation="2.254"/></filter><linearGradient id="linearGradient25516" x1="369" x2="425" y1="150" y2="150" gradientTransform="translate(-24,0)" gradientUnits="userSpaceOnUse" xlink:href="#linearGradient25510"/><linearGradient id="linearGradient25520" x1="369" x2="425" y1="150" y2="150" gradientTransform="translate(-369,1)" gradientUnits="userSpaceOnUse" xlink:href="#linearGradient26491"/><linearGradient id="linearGradient27468" x1="-14.525" x2="191.668" y1="61.097" y2="61.097" gradientUnits="userSpaceOnUse" spreadMethod="pad" xlink:href="#linearGradient28439"/><filter id="filter30511" width="1.345" height="1.399" x="-.173" y="-.199"><feGaussianBlur id="feGaussianBlur30513" stdDeviation="14.763"/></filter></defs><metadata id="metadata7"/><g id="layer1"><rect style="opacity:1;fill:#efefef;fill-opacity:1;fill-rule:evenodd;stroke:#ff4e00;stroke-width:0;stroke-linejoin:miter;stroke-miterlimit:4;stroke-dasharray:none;stroke-dashoffset:0;stroke-opacity:1" id="rect18655" width="403.051" height="302.642" x="-.707" y="-.52"/><g id="g18575" transform="translate(2.0203052,1.0101526)"><path style="fill:red;fill-opacity:1;fill-rule:evenodd;stroke:#ffff82;stroke-width:6;stroke-linecap:butt;stroke-linejoin:miter;stroke-miterlimit:4;stroke-dasharray:none;stroke-opacity:1;filter:url(#filter10313)" id="path4301" d="M -0.71428572,213.85714 C 157.85714,131.71429 157.85714,131.71429 157.85714,131.71429"/><path id="path3154" d="M -0.71428572,213.85714 C 157.85714,131.71429 157.85714,131.71429 157.85714,131.71429" style="opacity:.07960199;fill:#fb0031;fill-opacity:1;fill-rule:evenodd;stroke:#ff4e00;stroke-width:2;stroke-linecap:butt;stroke-linejoin:miter;stroke-miterlimit:4;stroke-dasharray:none;stroke-opacity:1;filter:url(#filter7354)"/></g><g id="g24530" style="opacity:.64179104"><path style="opacity:1;fill:red;fill-opacity:1;fill-rule:evenodd;stroke:#000;stroke-width:0;stroke-linecap:butt;stroke-linejoin:miter;stroke-miterlimit:4;stroke-dasharray:none;stroke-opacity:1;filter:url(#filter24498)" id="path18581" d="M 226.10191,120.31795 L 230.71068,117.76497 L 230.71068,117.76497 L 419.90053,167.35427 L 417.00396,179.13345 L 226.10191,120.31795 z"/><path id="path18583" d="M 224.52416,116.81463 L 229.17147,114.50657 L 229.17147,114.50657 L 417.35108,177.90932 L 413.93127,189.69819 L 224.52416,116.81463 z" style="opacity:1;fill:#ff8500;fill-opacity:1;fill-rule:evenodd;stroke:#000;stroke-width:0;stroke-linecap:butt;stroke-linejoin:miter;stroke-miterlimit:4;stroke-dasharray:none;stroke-opacity:1;filter:url(#filter24506)"/><path style="opacity:1;fill:#ff0;fill-opacity:1;fill-rule:evenodd;stroke:#000;stroke-width:0;stroke-linecap:butt;stroke-linejoin:miter;stroke-miterlimit:4;stroke-dasharray:none;stroke-opacity:1;filter:url(#filter24502)" id="path18585" d="M 223.02809,117.74648 L 225.74203,115.75317 L 415.63393,185.69457 L 413.30554,196.06021 L 223.02809,117.74648 z"/><path id="path18587" d="M 220.84428,119.26557 L 222.98389,117.69351 L 413.72462,194.527 L 411.25725,205.34144 L 220.84428,119.26557 z" style="opacity:1;fill:#00d000;fill-opacity:1;fill-rule:evenodd;stroke:#000;stroke-width:0;stroke-linecap:butt;stroke-linejoin:miter;stroke-miterlimit:4;stroke-dasharray:none;stroke-opacity:1;filter:url(#filter24510)"/><path style="opacity:1;fill:#00abf8;fill-opacity:1;fill-rule:evenodd;stroke:#000;stroke-width:0;stroke-linecap:butt;stroke-linejoin:miter;stroke-miterlimit:4;stroke-dasharray:none;stroke-opacity:1;filter:url(#filter24518)" id="path18589" d="M 158.2115,134.34623 L 158.54357,133.68037 L 236.15439,124.26207 L 238.06857,127.46254 L 158.2115,134.34623 z" transform="matrix(2.1973464,1.4777018,-2.1174735,3.0978884,156.08694,-529.87375)"/><path id="path18591" d="M 219.03345,119.49602 L 219.94972,118.52869 L 410.46835,214.99245 L 406.52541,227.66942 L 219.03345,119.49602 z" style="opacity:1;fill:#000df8;fill-opacity:1;fill-rule:evenodd;stroke:#000;stroke-width:0;stroke-linecap:butt;stroke-linejoin:miter;stroke-miterlimit:4;stroke-dasharray:none;stroke-opacity:1;filter:url(#filter24526)"/><path style="opacity:1;fill:#680df8;fill-opacity:1;fill-rule:evenodd;stroke:#000;stroke-width:0;stroke-linecap:butt;stroke-linejoin:miter;stroke-miterlimit:4;stroke-dasharray:none;stroke-opacity:1;filter:url(#filter24522)" id="path18593" d="M 218.6374,118.72702 L 219.55368,117.75969 L 407.93583,226.28562 L 404.39394,238.37585 L 218.6374,118.72702 z"/></g><path style="opacity:1;fill:url(#linearGradient9310);fill-opacity:1;fill-rule:evenodd;stroke:#413e3a;stroke-width:1;stroke-linejoin:miter;stroke-miterlimit:4;stroke-dasharray:none;stroke-dashoffset:0;stroke-opacity:1" id="path2160" d="M 191.16782,149.94834 L -14.024966,149.94834 L 88.571427,-27.753822 L 191.16782,149.94834 z" transform="translate(111.42857,88.90274)"/><path id="path27466" d="M 191.16782,149.94834 L -14.024966,149.94834 L 88.571427,-27.753822 L 191.16782,149.94834 z" transform="matrix(0.7258007,0,0,0.7258007,135.7148,105.65557)" style="opacity:1;fill:url(#linearGradient27468);fill-opacity:1;fill-rule:evenodd;stroke:#413e3a;stroke-width:0;stroke-linejoin:miter;stroke-miterlimit:4;stroke-dasharray:none;stroke-dashoffset:0;stroke-opacity:.73837208;filter:url(#filter30511)"/><g id="g18358" transform="matrix(1.0121592,0,0,1,-1.923732,0)" style="opacity:.26368159;filter:url(#filter18571)"><path id="path14402" d="M 159.375,132.32143 L 160.26786,131.07143 L 160.26786,131.07143 L 230.53571,114.64286 L 232.14286,117.67857 L 159.375,132.32143 z" style="fill:red;fill-opacity:1;fill-rule:evenodd;stroke:#000;stroke-width:0;stroke-linecap:butt;stroke-linejoin:miter;stroke-miterlimit:4;stroke-dasharray:none;stroke-opacity:1"/><path style="fill:#ff8500;fill-opacity:1;fill-rule:evenodd;stroke:#000;stroke-width:0;stroke-linecap:butt;stroke-linejoin:miter;stroke-miterlimit:4;stroke-dasharray:none;stroke-opacity:1" id="path15439" d="M 159.15217,132.8353 L 160.10924,131.63373 L 160.10924,131.63373 L 232.29159,117.66898 L 233.73767,120.78465 L 159.15217,132.8353 z"/><path id="path16410" d="M 158.88431,133.26387 L 159.30567,132.41944 L 233.41532,119.64604 L 234.89838,122.28465 L 158.88431,133.26387 z" style="fill:#ff0;fill-opacity:1;fill-rule:evenodd;stroke:#000;stroke-width:0;stroke-linecap:butt;stroke-linejoin:miter;stroke-miterlimit:4;stroke-dasharray:none;stroke-opacity:1"/><path style="fill:#00d000;fill-opacity:1;fill-rule:evenodd;stroke:#000;stroke-width:0;stroke-linecap:butt;stroke-linejoin:miter;stroke-miterlimit:4;stroke-dasharray:none;stroke-opacity:1" id="path18350" d="M 158.52717,133.92459 L 158.85924,133.25873 L 234.7023,121.88326 L 236.23767,124.64179 L 158.52717,133.92459 z"/><path id="path18352" d="M 158.2115,134.34623 L 158.54357,133.68037 L 236.15439,124.26207 L 238.06857,127.46254 L 158.2115,134.34623 z" style="fill:#00abf8;fill-opacity:1;fill-rule:evenodd;stroke:#000;stroke-width:0;stroke-linecap:butt;stroke-linejoin:miter;stroke-miterlimit:4;stroke-dasharray:none;stroke-opacity:1"/><path style="fill:#000df8;fill-opacity:1;fill-rule:evenodd;stroke:#000;stroke-width:0;stroke-linecap:butt;stroke-linejoin:miter;stroke-miterlimit:4;stroke-dasharray:none;stroke-opacity:1" id="path18354" d="M 158.2115,134.45219 L 158.29103,134.102 L 238.04842,126.89341 L 239.52066,130.28328 L 158.2115,134.45219 z"/><path id="path18356" d="M 158.27463,134.70474 L 158.35416,134.35455 L 239.81619,129.92387 L 241.28843,133.12434 L 158.27463,134.70474 z" style="fill:#680df8;fill-opacity:1;fill-rule:evenodd;stroke:#000;stroke-width:0;stroke-linecap:butt;stroke-linejoin:miter;stroke-miterlimit:4;stroke-dasharray:none;stroke-opacity:1"/></g><rect style="opacity:1;fill:url(#linearGradient25516);fill-opacity:1;fill-rule:evenodd;stroke:#413e3a;stroke-width:0;stroke-linejoin:miter;stroke-miterlimit:4;stroke-dasharray:none;stroke-dashoffset:0;stroke-opacity:.73837208" id="rect24539" width="56" height="324" x="345" y="-12"/><rect id="rect25518" width="56" height="324" x="0" y="-11" style="opacity:1;fill:url(#linearGradient25520);fill-opacity:1;fill-rule:evenodd;stroke:#413e3a;stroke-width:0;stroke-linejoin:miter;stroke-miterlimit:4;stroke-dasharray:none;stroke-dashoffset:0;stroke-opacity:.73837208"/></g></svg>

<svg xmlns="http://www.w3.org/2000/svg" width="400" height="300" xmlns:xlink="http://www.w3.org/1999/xlink"><defs><linearGradient id="d"><stop offset="0" stop-color="#fff"/><stop offset="1" stop-color="#fff"/></linearGradient><linearGradient id="c"><stop offset="0" stop-color="#efefef"/><stop offset="1" stop-color="#efefef" stop-opacity="0"/></linearGradient><linearGradient id="b"><stop offset="0" stop-color="#efefef" stop-opacity="0"/><stop offset="1" stop-color="#efefef"/></linearGradient><linearGradient id="a"><stop offset="0" stop-color="#fdffff"/><stop offset="1" stop-color="#f2f2f2"/></linearGradient><filter id="f"><feGaussianBlur stdDeviation="1.22"/></filter><linearGradient id="o" x1="-14.53" x2="191.67" y1="61.1" y2="61.1" gradientUnits="userSpaceOnUse" spreadMethod="pad" href="#a"/><filter id="e"><feGaussianBlur stdDeviation="2.55"/></filter><filter id="r" width="1.06" height="1.25" x="-0.03" y="-0.12"><feGaussianBlur stdDeviation="1.03"/></filter><filter id="g"><feGaussianBlur stdDeviation="1.92"/></filter><filter id="i"><feGaussianBlur stdDeviation="2.05"/></filter><filter id="h"><feGaussianBlur stdDeviation="2.01"/></filter><filter id="j"><feGaussianBlur stdDeviation="2.1"/></filter><filter id="k"><feGaussianBlur stdDeviation="0.69"/></filter><filter id="n"><feGaussianBlur stdDeviation="2.32"/></filter><filter id="m"><feGaussianBlur stdDeviation="2.25"/></filter><linearGradient id="s" x1="369" x2="425" y1="150" y2="150" gradientTransform="translate(-24)" gradientUnits="userSpaceOnUse" href="#b"/><linearGradient id="t" x1="369" x2="425" y1="150" y2="150" gradientTransform="translate(-369 1)" gradientUnits="userSpaceOnUse" href="#c"/><linearGradient id="p" x1="-14.53" x2="191.67" y1="61.1" y2="61.1" gradientUnits="userSpaceOnUse" spreadMethod="pad" href="#d"/><filter id="q" width="1.34" height="1.4" x="-0.17" y="-0.2"><feGaussianBlur stdDeviation="14.76"/></filter><path fill="#00abf8" d="m158.212 134.346.332-.666 77.61-9.418 1.915 3.2z" id="l"/></defs><path d="M-.71-.52h403.05v302.64H-.71z" fill="#efefef" fill-rule="evenodd"/><g transform="translate(2.02 1.01)"><path d="m-.714 213.857 158.571-82.143" fill="red" fill-rule="evenodd" stroke="#ffff82" stroke-width="6" filter="url(#e)"/><path d="m-.714 213.857 158.571-82.143" opacity="0.08" fill="#fb0031" fill-rule="evenodd" stroke="#ff4e00" stroke-width="2" filter="url(#f)"/></g><g opacity="0.64"><path d="m226.102 120.318 4.609-2.553 189.19 49.59-2.897 11.778z" opacity="1" fill="red" fill-rule="evenodd" filter="url(#g)"/><path d="m224.524 116.815 4.647-2.308 188.18 63.402-3.42 11.79z" opacity="1" fill="#ff8500" fill-rule="evenodd" filter="url(#h)"/><path d="m223.028 117.746 2.714-1.993 189.892 69.942-2.328 10.365z" opacity="1" fill="#ff0" fill-rule="evenodd" filter="url(#i)"/><path d="m220.844 119.266 2.14-1.572 190.74 76.833-2.467 10.814z" opacity="1" fill="#00d000" fill-rule="evenodd" filter="url(#j)"/><use transform="matrix(2.19735 1.4777 -2.11747 3.09789 156.087 -529.874)" opacity="1" fill-rule="evenodd" filter="url(#k)" href="#l"/><path d="m219.033 119.496.917-.967 190.518 96.463-3.943 12.677z" opacity="1" fill="#000df8" fill-rule="evenodd" filter="url(#m)"/><path d="m218.637 118.727.917-.967 188.382 108.526-3.542 12.09z" opacity="1" fill="#680df8" fill-rule="evenodd" filter="url(#n)"/></g><path d="M191.168 149.948H-14.025L88.571-27.754z" transform="translate(111.429 88.903)" fill="url(#o)" fill-rule="evenodd" stroke="#413e3a"/><path d="M191.168 149.948H-14.025L88.571-27.754z" transform="translate(135.715 105.656)scale(.7258)" fill="url(#p)" fill-rule="evenodd" filter="url(#q)"/><g transform="matrix(1.01216 0 0 1 -1.924 0)" opacity="0.26" filter="url(#r)"><path d="m159.375 132.321.893-1.25 70.268-16.428 1.607 3.036z" fill="red" fill-rule="evenodd"/><path d="m159.152 132.835.957-1.201 72.183-13.965 1.446 3.116z" fill="#ff8500" fill-rule="evenodd"/><path d="m158.884 133.264.422-.845 74.11-12.773 1.482 2.639z" fill="#ff0" fill-rule="evenodd"/><path d="m158.527 133.925.332-.666 75.843-11.376 1.536 2.759z" fill="#00d000" fill-rule="evenodd"/><use fill-rule="evenodd" href="#l"/><path d="m158.212 134.452.079-.35 79.757-7.209 1.473 3.39z" fill="#000df8" fill-rule="evenodd"/><path d="m158.275 134.705.08-.35 81.461-4.431 1.472 3.2z" fill="#680df8" fill-rule="evenodd"/></g><path d="M345-12h56v324h-56z" fill="url(#s)" fill-rule="evenodd"/><path d="M0-11h56v324H0z" fill="url(#t)" fill-rule="evenodd"/></svg>
